X:1
T:If you're Happy and You Know It
M:4/4
L:1/8
K:Cmaj
GG|"C"C'C'C'C' C'C'BC'| "G7" D'6 GG|
w: If you're hap-py and you know it, clap your hands. If you're
"C"D'D'D'D' D'D'C'D'| "G7" E'6 E'E'|
w: hap-py and you know it, clap your hands. If you're
"F"F'F'F'F' AAF'F'|"C"E'E'E'D' C'C'E'E'|
w: hap-py and you know it, and you real-ly want to show it, If you're
"G7" D'D'D'C'| BBAB|"C" C'6 z2|]
w:hap-py and you know it clap your hands.
